assets/efishery/petani-topi-caping.svg

<svg width="24" height="25" viewBox="0 0 24 25" fill="none" xmlns="http://www.w3.org/2000/svg">
<path fill-rule="evenodd" clip-rule="evenodd" d="M14.1409 4.23686C13.2772 3.29326 12.0681 3.15055 11.0155 3.35405C9.97086 3.55599 8.9734 4.1139 8.4032 4.73686L8.32304 4.82444C8.25088 4.82619 8.17857 4.83837 8.10839 4.86129C7.88928 4.93285 7.71525 5.1012 7.63644 5.31781L3.71346 16.1011C3.6101 16.2455 3.51655 16.3919 3.43375 16.5401C3.06131 17.2069 2.88632 17.9516 3.0793 18.6978C3.27228 19.444 3.78637 20.0105 4.43538 20.4131C5.07991 20.813 5.89448 21.0772 6.79565 21.2262C8.60012 21.5244 10.8959 21.3841 13.2717 20.7697C15.6476 20.1552 17.7235 19.1649 19.1572 18.0293C19.8732 17.4621 20.4575 16.8361 20.8274 16.1739C21.1998 15.5071 21.3748 14.7624 21.1818 14.0162C20.9888 13.27 20.4747 12.7035 19.8257 12.3009C19.667 12.2024 19.4979 12.1121 19.3198 12.0298L9.89222 5.71089C9.90798 5.71289 9.92377 5.7149 9.93961 5.7169C10.8203 5.82866 11.8164 5.95505 12.5918 5.98248C12.8928 5.99313 13.18 5.99022 13.4308 5.96376C13.6692 5.93863 13.93 5.88735 14.14 5.7655C14.2511 5.70108 14.3687 5.60501 14.4515 5.46275C14.5379 5.31411 14.5659 5.14968 14.5473 4.98959C14.514 4.70222 14.334 4.44786 14.1409 4.23686ZM10.147 4.73457L10.0845 4.7266C10.4234 4.5533 10.8078 4.4127 11.2053 4.33587C12.0549 4.17162 12.856 4.31415 13.4032 4.91204C13.4168 4.92691 13.4292 4.94093 13.4406 4.9541C13.4072 4.95955 13.3692 4.96472 13.326 4.96927C13.1402 4.98887 12.9046 4.99292 12.6271 4.98311C11.8917 4.95709 10.9953 4.84277 10.147 4.73457ZM10.4998 7.9239L11.6946 8.72471L11.3302 9.81779L10.0788 9.10269L10.4998 7.9239ZM9.73719 10.0592L11.0077 10.7853L10.585 12.0533C10.5344 12.0675 10.484 12.0819 10.4337 12.0964L9.22538 11.4923L9.73719 10.0592ZM8.3244 11.0418L8.8553 9.5553L7.8914 9.0045L7.33094 10.5451L8.3244 11.0418ZM6.98679 11.491L7.98561 11.9904L7.69437 12.8059L6.6591 12.3918L6.98679 11.491ZM6.31705 13.332L6.84983 13.5451C6.57969 13.6921 6.32072 13.844 6.07401 14.0001L6.31705 13.332ZM8.88658 12.4409L9.08357 12.5394C8.99343 12.5727 8.90396 12.6065 8.81518 12.6408L8.88658 12.4409ZM10.9964 13.4958C8.93596 14.0731 7.20088 14.9372 6.03533 15.8605C5.62174 16.1882 5.29261 16.5131 5.04683 16.8235L4.74874 17.6429C4.98952 17.6948 5.26263 17.738 5.56845 17.7693C7.17527 17.9334 9.39255 17.7368 11.8092 17.0852C14.2254 16.4337 16.2581 15.4844 17.5906 14.5262C18.1356 14.1343 18.5204 13.7715 18.7674 13.4654L18.5911 13.3472C18.2185 13.1874 17.76 13.0569 17.2209 12.9678C15.6672 12.711 13.5869 12.8219 11.3649 13.3966C11.2661 13.4221 11.168 13.4483 11.0706 13.4752L11.0475 13.5214L10.9964 13.4958ZM9.64304 7.34964L9.19692 8.59876L8.23829 8.05097L8.71881 6.73017L9.64304 7.34964ZM12.4688 11.6202L11.8932 11.2912L11.7348 11.7664C11.981 11.7125 12.2258 11.6638 12.4688 11.6202ZM12.2157 10.3238L13.6137 11.1226L13.9643 10.246L12.5562 9.3022L12.2157 10.3238ZM14.5941 11.3642C14.9347 11.3442 15.268 11.3353 15.5926 11.3374L14.8136 10.8153L14.5941 11.3642ZM12.1997 18.5335C9.6708 19.2154 7.27999 19.4457 5.45201 19.2651C5.85815 19.4714 6.39068 19.6389 7.04024 19.7462C8.59395 20.003 10.6742 19.8921 12.8962 19.3174C15.1181 18.7428 16.9914 17.8313 18.2258 16.8535C18.8438 16.3639 19.2732 15.8802 19.5178 15.4424C19.6987 15.1186 19.7667 14.8437 19.7602 14.612C19.4203 14.9907 18.9842 15.3716 18.4663 15.744C16.954 16.8316 14.7457 17.847 12.1997 18.5335Z" fill="#1D1D1D"/>
</svg>

<svg viewBox="0 0 24 25" xmlns="http://www.w3.org/2000/svg">
  <path fill-rule="evenodd" clip-rule="evenodd" d="M14.14 4.237c-.863-.944-2.072-1.086-3.125-.883-1.044.202-2.042.76-2.612 1.383l-.08.087a.75.75 0 0 0-.687.494L3.713 16.1c-.103.145-.196.29-.28.44-.372.666-.547 1.41-.354 2.157.193.746.707 1.313 1.356 1.715.645.4 1.46.664 2.36.813 1.805.298 4.1.158 6.477-.456 2.376-.615 4.452-1.605 5.885-2.74.716-.568 1.3-1.194 1.67-1.856.373-.667.548-1.412.355-2.158-.193-.746-.707-1.313-1.356-1.715a4.688 4.688 0 0 0-.506-.271L9.892 5.71l.048.007c.88.112 1.876.238 2.652.265.3.011.588.008.839-.018.238-.025.499-.077.709-.199a.844.844 0 0 0 .311-.302.758.758 0 0 0 .096-.473c-.033-.288-.213-.542-.406-.753zm-3.993.498-.063-.008a4.274 4.274 0 0 1 1.121-.391c.85-.164 1.651-.022 2.198.576l.038.042c-.034.006-.072.01-.115.015-.186.02-.421.024-.699.014-.735-.026-1.632-.14-2.48-.248zm.353 3.189 1.195.8-.365 1.094-1.251-.715.42-1.18zm-.763 2.135 1.27.726-.422 1.268-.151.043-1.209-.604.512-1.433zm-1.413.983.531-1.487-.964-.55-.56 1.54.993.497zm-1.337.449.999.5-.292.815-1.035-.414.328-.901zm-.67 1.841.533.213c-.27.147-.53.299-.776.455l.243-.668zm2.57-.891.197.098-.269.102.072-.2zm2.11 1.055c-2.061.577-3.796 1.441-4.962 2.364a6.051 6.051 0 0 0-.988.963l-.298.82c.24.052.514.095.82.126 1.606.164 3.824-.032 6.24-.684 2.416-.651 4.45-1.6 5.782-2.559.545-.392.93-.755 1.176-1.06l-.176-.119a5.974 5.974 0 0 0-1.37-.38c-1.554-.256-3.634-.145-5.856.43-.099.025-.197.051-.294.078l-.024.046-.05-.025zM9.642 7.35l-.446 1.249-.959-.548.48-1.32.925.619zm2.826 4.27-.576-.329-.158.475c.246-.053.49-.102.734-.146zm-.253-1.296 1.398.799.35-.877-1.408-.944-.34 1.022zm2.378 1.04c.34-.02.674-.029.999-.027l-.78-.522-.219.55zm-2.394 7.17c-2.53.681-4.92.912-6.748.731.406.206.939.374 1.588.481 1.554.257 3.634.146 5.856-.429 2.222-.574 4.095-1.486 5.33-2.463.618-.49 1.047-.974 1.292-1.412.18-.323.249-.598.242-.83-.34.379-.776.76-1.294 1.132-1.512 1.088-3.72 2.103-6.266 2.79z"/>
</svg>
